public/assets/img/tech-logo/python.svg

<svg width="100" height="100" viewBox="0 0 100 100" fill="none" xmlns="http://www.w3.org/2000/svg">
<g id="python">
<g id="python_2">
<path id="Vector" d="M49.6397 0.000488281C24.2535 0.000488281 25.8385 11.0095 25.8385 11.0095L25.8667 22.4151H50.0924V25.8394H16.2447C16.2447 25.8394 0 23.9971 0 49.6116C0 75.2269 14.1788 74.3185 14.1788 74.3185H22.6406V62.432C22.6406 62.432 22.1844 48.2532 36.593 48.2532H60.6205C60.6205 48.2532 74.1199 48.4713 74.1199 35.2065V13.2739C74.1199 13.2739 76.1702 0.000488281 49.6397 0.000488281ZM36.2817 7.67056C36.8542 7.67004 37.4211 7.78242 37.9501 8.00125C38.4791 8.22009 38.9598 8.54109 39.3646 8.94589C39.7693 9.35068 40.0903 9.83133 40.3092 10.3603C40.528 10.8893 40.6404 11.4563 40.6399 12.0287C40.6404 12.6012 40.528 13.1681 40.3092 13.6971C40.0903 14.2261 39.7693 14.7068 39.3646 15.1116C38.9598 15.5164 38.4791 15.8374 37.9501 16.0562C37.4211 16.275 36.8542 16.3874 36.2817 16.3869C35.7092 16.3874 35.1423 16.275 34.6133 16.0562C34.0843 15.8374 33.6037 15.5164 33.1989 15.1116C32.7941 14.7068 32.4731 14.2261 32.2542 13.6971C32.0354 13.1681 31.923 12.6012 31.9235 12.0287C31.923 11.4563 32.0354 10.8893 32.2542 10.3603C32.4731 9.83133 32.7941 9.35068 33.1989 8.94589C33.6037 8.54109 34.0843 8.22009 34.6133 8.00125C35.1423 7.78242 35.7092 7.67004 36.2817 7.67056Z" fill="url(#paint0_linear_790_3246)"/>
<path id="Vector_2" d="M50.3607 99.4806C75.747 99.4806 74.1619 88.4715 74.1619 88.4715L74.1337 77.0663H49.9076V73.642H83.7553C83.7553 73.642 100 75.4843 100 49.869C100 24.254 85.8213 25.1624 85.8213 25.1624H77.3594V37.0486C77.3594 37.0486 77.8156 51.2273 63.407 51.2273H39.3795C39.3795 51.2273 25.8801 51.0092 25.8801 64.2745V86.2075C25.8801 86.2075 23.8302 99.4806 50.3603 99.4806H50.3607ZM63.7187 91.8112C63.1462 91.8118 62.5793 91.6994 62.0503 91.4806C61.5213 91.2617 61.0407 90.9407 60.6359 90.5359C60.2311 90.1311 59.9101 89.6505 59.6912 89.1215C59.4724 88.5925 59.36 88.0255 59.3605 87.4531C59.36 86.8806 59.4723 86.3136 59.6911 85.7845C59.9099 85.2555 60.2309 84.7748 60.6357 84.37C61.0405 83.9651 61.5212 83.6441 62.0502 83.4252C62.5792 83.2064 63.1462 83.094 63.7187 83.0945C64.2912 83.094 64.8581 83.2064 65.3871 83.4252C65.9161 83.644 66.3968 83.965 66.8015 84.3698C67.2063 84.7746 67.5273 85.2553 67.7462 85.7843C67.965 86.3133 68.0774 86.8802 68.0769 87.4527C68.0774 88.0251 67.965 88.5921 67.7462 89.1211C67.5273 89.6501 67.2063 90.1307 66.8015 90.5355C66.3968 90.9403 65.9161 91.2613 65.3871 91.4802C64.8581 91.699 64.2912 91.8114 63.7187 91.8109V91.8112Z" fill="url(#paint1_linear_790_3246)"/>
</g>
</g>
<defs>
<linearGradient id="paint0_linear_790_3246" x1="9.60996" y1="8.94811" x2="59.1669" y2="58.0107" gradientUnits="userSpaceOnUse">
<stop stop-color="#387EB8"/>
<stop offset="1" stop-color="#366994"/>
</linearGradient>
<linearGradient id="paint1_linear_790_3246" x1="40.0281" y1="40.4532" x2="93.2466" y2="90.7623" gradientUnits="userSpaceOnUse">
<stop stop-color="#FFE052"/>
<stop offset="1" stop-color="#FFC331"/>
</linearGradient>
</defs>
</svg>

<svg xmlns="http://www.w3.org/2000/svg" width="100" height="100" fill="none"><path fill="url(#a)" d="M49.64 0C24.254 0 25.839 11.01 25.839 11.01l.028 11.405h24.225v3.424H16.245S0 23.997 0 49.612s14.179 24.707 14.179 24.707h8.462V62.432s-.457-14.179 13.952-14.179H60.62s13.5.218 13.5-13.047V13.275S76.17 0 49.64 0M36.282 7.67a4.354 4.354 0 0 1 4.358 4.359 4.355 4.355 0 0 1-6.027 4.027 4.35 4.35 0 0 1-2.69-4.027 4.355 4.355 0 0 1 4.359-4.358"/><path fill="url(#b)" d="M50.36 99.48c25.387 0 23.802-11.008 23.802-11.008l-.028-11.406H49.908v-3.424h33.847S100 75.484 100 49.869 85.821 25.162 85.821 25.162H77.36V37.05s.457 14.178-13.952 14.178H39.38s-13.5-.218-13.5 13.048v21.932s-2.05 13.274 24.48 13.274m13.359-7.669a4.353 4.353 0 0 1-4.358-4.358 4.356 4.356 0 0 1 7.44-3.083 4.36 4.36 0 0 1 .945 4.751 4.355 4.355 0 0 1-4.027 2.69"/><defs><linearGradient id="a" x1="9.61" x2="59.167" y1="8.948" y2="58.011" gradientUnits="userSpaceOnUse"><stop stop-color="#387EB8"/><stop offset="1" stop-color="#366994"/></linearGradient><linearGradient id="b" x1="40.028" x2="93.247" y1="40.453" y2="90.762" gradientUnits="userSpaceOnUse"><stop stop-color="#FFE052"/><stop offset="1" stop-color="#FFC331"/></linearGradient></defs></svg>
